icons/desktop/20/send-tab-to-device-left-20.svg

<svg width="20" height="20" viewBox="0 0 20 20" fill="none" xmlns="http://www.w3.org/2000/svg">
<path fill-rule="evenodd" clip-rule="evenodd" d="M14.5 1.5C15.2912 1.5 16.2608 1.55065 17.3574 1.72168C18.878 1.95967 20 3.27739 20 4.81348V15.1885C19.9998 16.7378 18.8693 18.0434 17.3447 18.2803C16.4998 18.4115 15.5452 18.5 14.5 18.5C13.7088 18.5 12.7392 18.4493 11.6426 18.2783C10.122 18.0403 9 16.7226 9 15.1865V4.81152C9.00023 3.26216 10.1307 1.9566 11.6553 1.71973C12.5002 1.58852 13.4548 1.5 14.5 1.5ZM13.5 15C13.086 15 12.75 15.336 12.75 15.75C12.75 16.164 13.086 16.5 13.5 16.5H15.5C15.914 16.5 16.25 16.164 16.25 15.75C16.25 15.336 15.914 15 15.5 15H13.5ZM14.5 3.25C13.5532 3.25 12.6889 3.32945 11.9238 3.44824C11.2452 3.55369 10.7502 4.1316 10.75 4.81152V13H18.25V4.81348C18.25 4.17784 17.813 3.62746 17.21 3.47559L17.0879 3.4502C16.0948 3.29531 15.2167 3.25 14.5 3.25Z" fill="black"/>
<path d="M4.00098 7.50098C4.001 7.056 4.5395 6.83249 4.85449 7.14746L7.35352 9.64648C7.54851 9.84148 7.54851 10.1575 7.35352 10.3525L4.85449 12.8516C4.5395 13.1665 4.00101 12.944 4.00098 12.498V10.875H0.875C0.392 10.875 0 10.483 0 10C0 9.517 0.392 9.125 0.875 9.125H4.00098V7.50098Z" fill="black"/>
</svg>

<!-- This Source Code Form is subject to the terms of the Mozilla Public
   - License, v. 2.0. If a copy of the MPL was not distributed with this
   - file, You can obtain one at http://mozilla.org/MPL/2.0/. -->
<svg xmlns="http://www.w3.org/2000/svg" width="20" height="20" fill="context-fill" fill-opacity="context-fill-opacity" viewBox="0 0 20 20">
    <path fill-rule="evenodd" d="M14.5 1.5c.791 0 1.76.05 2.857.222A3.13 3.13 0 0 1 20 4.813v10.375a3.13 3.13 0 0 1-2.655 3.092 18.5 18.5 0 0 1-5.702-.002A3.13 3.13 0 0 1 9 15.187V4.812a3.13 3.13 0 0 1 2.655-3.092c.845-.131 1.8-.22 2.845-.22m-1 13.5a.75.75 0 0 0 0 1.5h2a.75.75 0 0 0 0-1.5zm1-11.75c-.947 0-1.811.08-2.576.198a1.38 1.38 0 0 0-1.174 1.364V13h7.5V4.813c0-.635-.437-1.186-1.04-1.337l-.122-.026a17 17 0 0 0-2.588-.2" clip-rule="evenodd" />
    <path d="M4.001 7.501a.5.5 0 0 1 .853-.354l2.5 2.5a.5.5 0 0 1 0 .705l-2.5 2.5a.5.5 0 0 1-.853-.354v-1.623H.875a.875.875 0 0 1 0-1.75h3.126z" />
</svg>
